X: 2
T:Il pleut bergère
T:(L'hospitalité/l'orage)
C:Paroles : Philippe Fabre d'églantine
C:Musique : Victor Simon (1780)
Z:Transcrit et/ou corrigé par Michel BELLON - 2006-04-28
Z:Pour toute observation mailto:galouvielle@free.fr
M:6/8
L:1/8
K:C
z3 z2E | "C"G2E G2E | C3 G,3 | C>B, C "G"D2D | "C"E6 | E>D E "F"F2F |
"C"G3E3 | "F"G>AG F2F | "C"(E3"G"D3) | D>E D "F"F2F | "C"E3 G3 | "F"F>E D "C"E2C |
(E3"G"D2)E | "C"G2E G2E | "F"F3A3 | "G"G>A G D2E | "C"C3-C2z |]

%%footer $D   Galouvielle-MBe 2006 \n-- (--)
